!!!!SEGMENT: pl-wumfc--r254--003_paderewski-ignacy-jan--krakowiak-ii.krn
!!!cenid: 18xx:3146
!!!COM: Paderewski, Ignacy Jan
!!!COM-rismID: pe30029943
!!!CDT: 1860/11/18-1941/06/29
!!!CNT: Polish
!!!OTL: Krakowiak II
!!!PDT:
!!!AGN:
!!!YEC: Copyright 2022 Narodowy Instytut Fryderyka Chopina (https://polishscores.org)
!!!YEM: License CC-BY-4.0 (https://creativecommons.org/licenses/by/4.0)
!!!SMS-siglum: PL-Wumfc
!!!SMS-shelfmark: R254
!!!SMS-shelfwork: 003 W
!!!SMS-variant:
!!!SMS-altvar:
!!!NIFC-rismSourceID: 1001156112
!!!NIFC-rismChildID: 1001156115
!!!NIFC-islandoraID: pl-wumfc:229
!!!URL-pdf-islandora: https://repozytorium.nifc.pl/islandora/object/pl-wumfc%3A229/datastream/PDF/view
!!!URL-scan: https://polish.musicsources.pl/pl/lokalizacje/galeria/rekopisy/4674 @EN{Scan on Polish Music Sources Website} @PL{Skany w portalu Dziedzictwo Muzyki Polskiej w otwartym dostępie}
!!!IIIF:
!!!ONB-nifc: UWAGA: w zbiorze: 1. Tobie (skan 0001-0002), 2. Krakowiak I (skan 0002-0003), 3. Krakowiak II (skan 0003, prawa strona)
!!!OMD: Allegro giocoso.
!!!OMD-mod: Allegro giocoso
!!!AIN: 1 piano
!!!key: B-
**kern	**fing	**kern	**dynam
*part1	*	*part1	*
*staff2	*	*staff1	*
*I"[Piano]	*	*I"[Piano]	*
*I'	*	*I'	*
*mI"Pianoforte	*	*mI"Pianoforte	*
*mI'pf	*	*mI'pf	*
*Ipiano	*	*Ipiano	*
*ICklav	*	*ICklav	*
*IGsolo	*	*IGsolo	*
*clefF4	*	*clefG2	*
*k[b-e-]	*	*k[b-e-]	*
*B-:	*	*B-:	*
*M2/4	*	*M2/4	*
=1	=1	=1	=1
4rAAA	.	4FF</	mf
N(>>4GG 4FFF^>\	.	4rF<	.
=2	=2	=2	=2
4rAAA	.	4FF</N)	.
N(>>4GG 4FFF\	.	4r<	.
=3	=3	=3	=3
!	!	!	!LO:MO:mod=!null:null
!	!	!	!LO:HP:t=cres.
4rAAA	.	16FF</LLN)	<
.	.	16AA</	.
.	.	16E-</	.
.	.	16G</JJ	.
8r	.	4c</	.
N(>>8GG 8FFF\	.	.	.
=4	=4	=4	=4
4rAAA	.	16FF</LLN)	.
.	.	16AA</	.
.	.	16E-</	.
.	.	16G</JJ	.
8r	.	4c</	.
N(>>8GG 8FFF\	.	.	.
=5	=5	=5	=5
4ryy	.	4FF</N)	.
[>>4FF\	.	4r<	.
=6	=6	=6	=6
!LO:TX:t=P:problem=błędne wyświetlenie numeru grupy niemiarowej; powinno być „12”	!	!LO:MO:mod=*null:null	!
*	*	*Xtuplet	*
!	!	!LO:SIC:o=((24rC<	!
2FF\]	.	(24rC<	<
.	.	24GG</LL	.
.	.	24AA</	.
.	.	24BB-</JJ	.
.	.	24C<\LL	.
!	!	!LO:SIC:o=24D<\)	!
.	.	24D<	.
!LO:MO:mod=!null:null	!	!	!
!LO:TX:a:t=12	!	!	!
.	.	24E-<\	.
.	.	24F<\JJ	.
.	.	24G</LL	.
.	.	24A</	.
.	.	24B-</	.
.	.	24c</JJ)	[[
=7	=7	=7	=7
*^	*	*	*
8r	8rCC	.	4d</	ff
!LO:SIC:o=8B- 8F\	!	!	!	!
8B- 8F/	8FF 8BBB-\	.	.	.
8r	8rCC	.	4f/	.
8B- 8F/	8F 8BB-\	.	.	.
=8	=8	=8	=8	=8
!	!	!	!LO:TX:a:i:t=morendo il canto	!
8r	8rCC	.	8.c/L	.
8A 8F/	8FF 8BBB-\	.	.	.
.	.	.	16d/Jk	.
8r	8rCC	.	8e-/L	.
8A 8F/	8F 8BB-\	.	8e-/J	.
=9	=9	=9	=9	=9
8r	8r	.	8d/L	.
8A 8F/	8FF 8BBB-\	.	8c/	.
8r	8r	.	8B-/	.
8B- 8F/	8F 8BB-\	.	8d/J	.
*v	*v	*	*	*
=10	=10	=10	=10
8r	.	(<8c/L	.
8FF 8BBB-\	.	8A/J	.
8r>	.	4F</)	.
!	!	!LO:TX:a:t=m.g.	!
8f>/	.	.	.
=11	=11	=11	=11
*^	*	*	*
8r	8r	.	4G/	.
8E-/	8FF 8BBB-\	.	.	.
!	!	!	!LO:TX:a:t=P:problem=brak początku ligatury	!
8r	8r	.	[>4B-/	ff
8G 8E-/	8F 8BB-\	.	.	.
!!LO:LB:g=original
=12	=12	=12	=12	=12
8F/L	8r	.	2B-/]	.
16F/L	8FF 8BBB-\	.	.	.
16E-/JJ	.	.	.	.
8D/L	8r	.	.	.
8F/J	8F 8BB-\	.	.	<
=13	=13	=13	=13	=13
8r	8r	.	8G/L	.
8E-/	8FF 8BBB-\	.	8A/	.
8r	8r	.	8B-/	.
8A 8F/	8F 8BB-\	.	8c/J	.
=14	=14	=14	=14	=14
8r	8r	.	4d/	.
8B- 8F/	8FF 8BBB-\	.	.	[
!	!	!	!LO:TX:b:i:t=rit.	!
8r	8r	.	4en/	.
8c#X 8G/	8AA 8AAA\	.	.	.
*v	*v	*	*	*
=15	=15	=15	=15
*	*	*^	*
8r	.	(8f/L	8r	<
8AA 8DD\	.	8g/	8d 8F\	.
8r	.	8a/	8r	.
8D-X 8DD-X\	.	8b-/J	8f 8B-\	[[
=16	=16	=16	=16	=16
8r	.	4cc/	8r	.
!	!	!	!LO:TX:b:i:t=rit.	!
8C 8CC\	.	.	8g 8e- 8B-\	.
8r	.	4cc#X/)	8r	.
8FF 8FFF\	.	.	8g 8e- 8A\	.
=17	=17	=17	=17	=17
!	!	!LO:TX:a:i:t=con grazia e leggerezza	!	!
!	!	!LO:TX:b:i:t=á Tempo	!	!
8r	.	4dd/	8r	.
8F 8BB-\	.	.	8f 8d\	.
8r	.	4ff/	8r	.
8F 8FF\	.	.	8f 8d\	.
=18	=18	=18	=18	=18
8r	.	8.cc/L	8r	.
8F 8BB-\	.	.	8g 8e-\	.
.	.	16dd/Jk	.	.
!	!	!	!	!LO:MO:mod=!null:null
!	!	!	!	!LO:DY:t=pp.
8r	.	8ee-/L	8r	pp
8F 8FF\	.	8ee-/J	8a 8e-\	.
=19	=19	=19	=19	=19
8r	.	8dd/L	8r	.
8F 8BB-\	.	8cc/	8f 8d\	.
8r	.	8b-/	8r	.
8F 8FF\	.	8dd/J	8f 8d\	.
=20	=20	=20	=20	=20
8r	.	8cc/L	8r	.
8F 8BB-\	.	8a/J	8g 8e-\	.
8r	.	4f/	8r	.
8F 8FF\	.	.	8e- 8A\	.
=21	=21	=21	=21	=21
8r	.	4g/	8r	<
8E- 8EE-\	.	.	8e- 8B-\	.
8r	.	4b-/	8r	.
8G 8GG\	.	.	8e- 8B-\	[[
!!LO:LB:g=original
=22	=22	=22	=22	=22
8r	.	2b-/	8f\L	.
8BB- 8DD\	.	.	16f\L	.
.	.	.	16e-\JJ	.
8r	.	.	8d\L	.
8F 8BB-\	.	.	8f\J	.
=23	=23	=23	=23	=23
8r	.	8g/L	8r	<
8EE-\	.	8a/	8g 8c\	.
8r	.	8b-/	8r	.
8AA\	.	8cc/J	8g 8c\	.
=24	=24	=24	=24	=24
!	!	!	!	!LO:DY:a
!	!	!	!	!LO:MO:mod=[ f
8r	.	4dd/	8r	[ sf
!	!	!	!	!LO:MO:mod=sf
8D 8GG\	.	.	8g 8c\	f
!	!	!	!	!LO:DY:a
!	!	!	!	!LO:MO:null:mod=.
8r	.	4dd/	8r	sf
!	!	!	!	!LO:MO:null:mod=sf
8D 8DD\	.	.	8f#X 8c\	.
=25	=25	=25	=25	=25
8r	.	8g/L	8r	<
8D 8GG\	.	8a/	8d 8B-\	.
8r	.	8b-/	8r	.
8D 8DD\	.	8cc/J	8g 8d\	[[
=26	=26	=26	=26	=26
8r	.	8dd/L	8r	.
8D 8GG\	.	8een/	8b- 8en\	.
8r	.	8ff/	8r	.
8D-X 8DD-X\	.	8ff#X/J	8b- 8f\	.
=27	=27	=27	=27	=27
8r	.	(4gg^/	8r	.
!	!	!	!LO:TX:b:i:t=agitato.:mod=agitato	!
8C 8GG 8CC\	.	.	8g 8f\	.
8r	.	4g/)	8r	.
8c 8G 8C\	.	.	8g 8f\	.
=28	=28	=28	=28	=28
!	!	!LO:SIC:o=4gg^/	!	!
8r	.	(4gg^	8r	.
8D-X 8GG\	.	.	8g 8f\	.
!	!	!LO:SIC:o=4g/	!	!
8r	.	4g)	8r	.
8D- 8DD-X\	.	.	8g 8f\	.
*	*	*v	*v	*
=29	=29	=29	=29
*^	*	*	*
!	!	!	!	!LO:DY:a
4C/	[2CC\	.	8bb- 8cc 8en/	sf
.	.	.	8eenL 8dd^>/	ff
!	!	!	!LO:TX:b:i:t=marcato il tema	!
8ryy	.	.	8cc/J	.
8b->^>\	.	.	8rddd	.
=30	=30	=30	=30	=30
!	!LO:TX:b:i:t=con pedale	!	!	!
4ryy	2CC\]	.	8a^>/L	.
.	.	.	8fJ 8d/	.
!	!	!	!LO:TX:a:t=m.g.	!
4cc>\	.	.	8ryy	.
!LO:TX:a:t=m.d.	!	!	!	!
.	.	.	8c< 8A< 8C</	.
*v	*v	*	*	*
=31	=31	=31	=31
*	*	*	*^
4GG 4GGG\	.	8D</L	<	.
.	.	8d<J 8B-</	.	.
!	!	!	!	!
!	!	!	!	!LO:HP:a:t=cres.
!	!	!	!	!LO:MO:null:mod=.
4C 4CC\	.	8en<L 8B-< 8En</	.	<
.	.	16d</L	.	.
!	!	!	!LO:MO:null:mod=.	!
.	.	16e</JJ	[[	.
*	*	*	*v	*v
!!LO:LB:g=original
=32	=32	=32	=32
!	!	!	!LO:MO:null:mod=.
4.FF 4.FFF\	.	16fLL 16A/	<
.	.	16c/	.
.	.	16f/	.
.	.	16a/JJ	.
.	.	4cc/	[[
8c 8C\	.	.	.
=33	=33	=33	=33
*^	*	*	*
4.ryy	[<2CC\	.	8bb- 8dd 8en/	sf
.	.	.	8eenL 8dd^>/	.
.	.	.	8cc/J	.
8b->\	.	.	8ree	.
=34	=34	=34	=34	=34
4ryy	2CC\]	.	8a^>/L	.
.	.	.	8fJ 8d/	.
4cc>^>\	.	.	8ryy	.
.	.	.	8c< 8C</	.
*v	*v	*	*	*
=35	=35	=35	=35
4GGG\	.	8D</L	.
.	.	8d<J 8B-</	.
!	!	!LO:TX:b:i:t=rit.	!
4CC\	.	8b-L 8en 8d/	.
.	.	16aL [>16e 16c/	.
.	.	16gJJ 16e] 16B-/	.
=36	=36	=36	=36
!	!	!LO:TX:b:i:t=à tempo	!
8FFF'\L	.	4.f 4.A/	.
!	!	!	!LO:MO:mod=!null:null
!	!	!	!LO:HP:b=2
(8C^\J	.	.	<
[<4F\)	.	.	.
.	.	(8g 8e-X (8B-/	.
=37	=37	=37	=37
8F\L]	.	8f) 8A/)	.
8c\J	.	8r	.
[4f\	.	8r	.
.	.	(8gg 8ee- (8b-/	[
=38	=38	=38	=38
8f\L]	.	8ff) 8a/)	>
8cc>\J	.	8reee	.
8aa>\	.	16rggg	.
.	.	(<16aa/LL	.
8ryy	.	16eee-/	.
.	.	16cccc/JJ)	.
=39	=39	=39	=39
4g>^>\	.	16reee	.
.	.	16a/LL	.
.	.	16ee-/	.
.	.	16ccc/JJ	.
4F^\	.	16r	.
.	.	16A/LL	.
.	.	16e-/	.
.	.	16cc/JJ	]
=40	=40	=40	=40
*	*	*^	*
8r	.	4dd/	8r	.
!LO:TX:b:i:t=marcato	!	!LO:TX:b:i:t=leggiero	!	!
8F 8BB-^\	.	.	8f 8d\	.
*clefG2	*	*	*	*
8r	.	4ff/	8r	.
8f#X^\	.	.	8f 8d\	.
=41	=41	=41	=41	=41
*clefF4	*	*	*	*
8r	.	8.cc/L	8r	.
8G 8BB-^\	.	.	8g 8e-\	.
.	.	16dd/Jk	.	.
*clefG2	*	*	*	*
8r	.	8ee-/L	8r	.
8g#X^\	.	8ee-/J	8e-\	.
!!LO:PB:g=original
=42	=42	=42	=42	=42
*clefF4	*	*	*	*
8r	.	8dd/L	8r	.
8A 8BB-^\	.	8cc/J	8e-\	.
*clefG2	*	*	*	*
!	!	!	!	!LO:MO:mod=!null:null
!	!	!	!	!LO:HP:b=2
8r	.	8b-/L	8r	<
8b-^\	.	8dd/J	8f 8d\	.
=43	=43	=43	=43	=43
*clefF4	*	*	*	*
8r	.	8cc/L	8r	.
8Bn 8BBny^\	.	8a/J	8e-\	.
*clefG2	*	*	*	*
8r	.	4f/	8r	.
8cc^\	.	.	8e- 8A\	.
=44	=44	=44	=44	=44
*clefF4	*	*	*	*
8r	.	4g/	8r	[
8c#X 8BB-^\	.	.	8e- 8B-\	.
*clefG2	*	*	*	*
!	!	!LO:TX:a:i:t=marcato bene il canto	!	!
8r	.	4b-/	8r	.
8dd^\	.	.	8f 8B-\	.
=45	=45	=45	=45	=45
*clefF4	*	*	*	*
8r	.	8g/L	8r	.
8e- 8BB-\	.	16g/L	8B-\	.
.	.	16f/JJ	.	.
*clefG2	*	*	*	*
8r	.	8e-/L	8r	.
8een\	.	8d/J	8B-\	.
=46	=46	=46	=46	=46
!	!	!	!	!LO:MO:mod=!null:null
!	!	!	!	!LO:HP:b=2
8ff\L	.	8c/L	4A\	<
8gg\	.	8e-/	.	.
8gg#X\	.	8d/	4F\	.
8aa\J	.	8c/J	.	.
=47	=47	=47	=47	=47
!	!	!	!	!LO:MO:mod=!null:null
!	!	!	!	!LO:DY:b=2
4bb-\	.	4d/	8r	[ sf
.	.	.	8B- 8F\	.
*clefF4	*	*	*	*
4BB-\	.	4f/	8r	.
.	.	.	8d 8F\	.
*clefG2	*	*	*	*
=48	=48	=48	=48	=48
!	!	!	!	!LO:MO:mod=!null:null
!	!	!	!	!LO:HP:b=2
8f/L	.	8e-/L	4F\	<
8g/	.	16e-/L	.	.
.	.	16d/JJ	.	.
8g#X/	.	8c/L	4F\	.
8a/J	.	8e-/J	.	[[
=49	=49	=49	=49	=49
!	!	!	!	!LO:DY:b=2
4b-/	.	4d/	8r	sf
.	.	.	8B- 8F\	.
*clefF4	*	*	*	*
!LO:SIC:o=4BBB-\	!	!	!	!
4BBB-	.	4f/	8r	.
.	.	.	8d 8F\	.
*	*	*v	*v	*
*	*	*clefF4	*
=50	=50	=50	=50
*^	*	*^	*
!	!	!	!	!	!LO:MO:mod=!null:null
!	!	!	!	!	!LO:HP:b=2
2FF>\	8F\L	.	8F/	8E-\L	<
.	8G\	.	4F/	16E-\L	.
.	.	.	.	16D\JJ	.
.	8G#X\	.	.	8C\L	.
.	8A\J	.	8F/	8E-\J	[[
*v	*v	*	*	*	*
=51	=51	=51	=51	=51
!	!	!	!	!LO:DY:b=2:t=sf.
4B-\	.	4D/	8r	sf
.	.	.	8BB- 8FF\	<
!LO:SIC:o=4BBB-\	!	!	!	!
4BBB-	.	4F/	8r	.
.	.	.	8BB- 8FF\	[[
!!LO:LB:g=original
=52	=52	=52	=52	=52
4B-\	.	(4D/	8r	.
.	.	.	8BB- 8FF\	.
!	!	!	!	!LO:MO:mod=!null:null
!LO:SIC:o=4BBB-\	!	!	!	!LO:DY:t=forte
4BBB-	.	4F/	8r	f
.	.	.	8BB- 8FF\	.
*	*	*v	*v	*
=53	=53	=53	=53
.	.	8qD/	.
!LO:SIC:o=4BBB-\	!	!	!
4BBB-	.	4BB-/)	.
!LO:SIC:o=[<4BBB-^\	!	!	!LO:DY:a=2:t=sf.
[4BBB-^	.	4r	sf
=54	=54	=54	=54
!LO:SIC:o=4BBB-\]	!	!	!
4BBB-]	.	2r	.
!LO:SIC:o=4AAA\	!	!	!
4AAA	.	.	.
=55	=55	=55	=55
*ped	*	*	*
!LO:SIC:o=2GGG\	!	!	!LO:DY:a=2
2GGG	.	2r	ff
=56	=56	=56	=56
!LO:SIC:o=[<2GGG\	!	!LO:TX:a:i:t=Poco piu lento	!
[2GGG	.	2r	.
!	!	!LO:MO:mod=!null:null	!
!	!	!LO:CL:ed	!
*	*	*clefG2	*
=57	=57	=57	=57
*^	*	*	*
(<4d/	2GGG\N_<	.	(4dd\	f
8c#X/L	.	.	8cc#X\L	.
!	!	!	!	!LO:DY:a
!	!	!	!	!LO:MO:null:mod=.
8B-/J	.	.	8b-\J	ff
=58	=58	=58	=58	=58
[2d/)	2GGG\]	.	[<2dd\)	.
=59	=59	=59	=59	=59
!	!	!	!	!LO:MO:mod=!null:null
!	!	!	!	!LO:HP:b=2
2d/_	4D 4GG\	.	2dd\_<	<
.	8DL 8GG\	.	.	.
.	8DJ 8GG\	.	.	.
=60	=60	=60	=60	=60
2d/]	4A 4D\	.	2dd\]	.
.	8AL 8D\	.	.	.
.	8AJ 8D\	.	.	[[
=61	=61	=61	=61	=61
!	!LO:MO:mod=4ryy	!	!	!
(<8d/L	4r	.	(8dd/L	.
8B-/	.	.	8b-/	.
!	!LO:MO:mod=4ryy	!	!	!
8G/	4r	.	8g/	.
8B-/J	.	.	8b-/J	.
=62	=62	=62	=62	=62
!	!LO:MO:mod=4ryy	!	!	!
8A/	4r	.	8a/)	.
4En/	.	.	(>4en/	.
!	!LO:MO:mod=4ryy	!	!	!
.	4r	.	.	.
8qG/	.	.	8qg/	.
8F/	.	.	8f/	.
=63	=63	=63	=63	=63
!	!LO:MO:mod=4ryy	!	!	!LO:DY:a
[>2D/)	4r	.	[2d/)	sf
!	!LO:MO:mod=4ryy	!	!	!
.	4r	.	.	.
!	!	!	!LO:MO:null:mod=.	!
*	*	*	*clefG2	*
*v	*v	*	*	*
!!LO:LB:g=original
=64	=64	=64	=64
*^	*	*	*
*8ba	*	*	*	*
!	!	!	!	!LO:MO:mod=!null:null
!	!	!	!	!LO:HP:b=2
!	!	!	!	!LO:DY:b=2:t=sf.
2D/_	4AAA 4DDD\	.	2d/_>	sf <
.	8AAAL 8DDD\	.	.	.
.	8AAAJ 8DDD\	.	.	.
=65	=65	=65	=65	=65
2D/_	4EEn 4AAA\	.	2d/_>	.
.	8EEL 8AAA\	.	.	[
.	8EEJ 8AAA\	.	.	.
=66	=66	=66	=66	=66
*	*	*	*	*^
!	!LO:MO:mod=4ryy	!	!	!	!
8D/]	4r	.	8d/]	.	.
*X8ba	*	*	*	*	*
!	!	!	!	!LO:MO:mod=!null:null.	!
8D/L	.	.	8d/L	>	.
!	!	!	!	!	!LO:MO:mod=!null:null
!	!LO:MO:mod=4ryy	!	!	!	!LO:DY:t=piano
8En/	4r	.	8eny/	.	p
8qG/	.	.	8qg/	.	.
8F#X/J	.	.	8f#X/J	.	.
=67	=67	=67	=67	=67	=67
!	!LO:MO:mod=4ryy	!	!	!	!LO:DY:a=2:t=sf.
[2D/	4r	.	[>2d/	.	sf
!	!LO:MO:mod=4ryy	!	!	!	!
.	4r	.	.	]	.
*	*	*	*	*v	*v
=68	=68	=68	=68	=68
!	!	!	!	!LO:DY:b=2:t=pp.
2D/_	4AA 4DD\	.	2d/_	pp
.	8AAL 8DD\	.	.	.
.	8AAJ 8DD\	.	.	.
=69	=69	=69	=69	=69
!	!LO:MO:mod=4ryy	!	!	!
8D/]	4r	.	8d/]	.
!	!	!	!	!LO:MO:mod=!null:null
!	!	!	!	!LO:DY:t=pianisſ
4.ryy	.	.	8D</L	pp
!	!LO:MO:mod=4ryy	!	!	!
.	4r	.	8En</	.
.	.	.	8G</J	.
*v	*v	*	*	*
=70	=70	=70	=70
16D\LL	.	16F#X</LL	<
!	!	!LO:TX:b:i:t=staccato	!
16En\	.	16G</	.
16D\	.	16F#</	.
16E\JJ	.	16G</JJ	.
8F#y\L	.	8A</L	[
!	!	!	!LO:MO:mod=!null:null
!	!	!	!LO:HP:t=cres
8D\J	.	8d</J	<
=71	=71	=71	=71
8G\L	.	8B-</L	.
8A\	.	8c</	.
8B-\	.	8d/	.
8c#X\J	.	8gJ 8en/	.
=72	=72	=72	=72
!	!	!	!LO:DY:a
8d'\L	.	2f#X 2d/	sf
8A'\	.	.	.
!	!	!	!LO:MO:mod=!null:null
!	!	!	!LO:HP:t=dim
8D'\	.	.	>
8A'\J	.	.	.
=73	=73	=73	=73
2d\	.	8r	.
!	!	!	!LO:MO:mod=!null:null
!	!	!	!LO:HP:t=crescendo
.	.	8d/L	<
.	.	8en/	.
.	.	8g/J	.
=74	=74	=74	=74
*	*	*^	*
4r	.	16f#X/LL	8r	.
.	.	16g/	.	.
.	.	16f#/	8d\L	.
.	.	16g/JJ	.	.
4r	.	8a/L	8en\	.
.	.	8dd/J	8f#X\J	.
=75	=75	=75	=75	=75
8G\L	.	8b-/L	2g\	<
8A\	.	8cc/	.	.
8B-\	.	8dd/	.	.
8e-\J	.	8ggJ 8cc#X/	.	[[
*	*	*v	*v	*
!!LO:LB:g=original
=76	=76	=76	=76
8d\	.	8ff#X 8dd 8a/	f
!	!	!	!LO:DY:a
8r	.	[8d/	sf
4r	.	16d/LL]	<
.	.	16en/	.
.	.	16f#X/	.
.	.	16g/JJ	.
=77	=77	=77	=77
*	*	*Xtuplet	*
!LO:TX:a:i:t=ra<...>:mod=	!	!	!
2r	.	20a/LL	.
.	.	20b-/	.
.	.	20cc/	.
.	.	20dd/	.
.	.	20een/	.
.	.	20ff#X/	.
.	.	20gg/	.
.	.	20aa/	.
.	.	20bb-/	[
.	.	20ccc/JJ	.
=78	=78	=78	=78
*^	*	*	*
!	!	!	!	!LO:MO:mod=!null:null
!	!	!	!	!LO:DY:t=ff.
4d:\	[2GG:\	.	4ddd 4dd/	ff
8c#X\L	.	.	8ccc#XL 8cc#X/	.
8B-\J	.	.	8bb-J 8b-/	.
=79	=79	=79	=79	=79
!	!	!	!	!LO:DY:t=ff.
!	!	!	!	!LO:MO:null:mod=.
[2d/	2GG\]	.	[2ddd [2dd/	ff
=80	=80	=80	=80	=80
*	*	*	*^	*
!	!	!	!	!	!LO:MO:mod=!null:null
!	!	!	!	!	!LO:DY:b=2:t=sf.
2d/_	4D 4GG\	.	2ddd/_	2dd\_	sf
!	!	!	!	!	!LO:MO:mod=!null:null
!	!	!	!	!	!LO:HP:b=2
.	8DL 8GG\	.	.	.	<
.	8DJ 8GG\	.	.	.	.
*	*	*	*v	*v	*
=81	=81	=81	=81	=81
2d/]	4A 4D\	.	2ddd] 2dd/]	.
.	8AL 8D\	.	.	.
.	8AJ 8D\	.	.	.
=82	=82	=82	=82	=82
!	!LO:MO:mod=4ryy	!	!	!
(<8d/L	4r	.	(>8dddL 8dd/	[
8B-/	.	.	8bb- 8b-/	.
!	!LO:MO:mod=4ryy	!	!	!
8G/	4r	.	8gg 8g/	.
8B-/J	.	.	8bb-J 8b-/	.
=83	=83	=83	=83	=83
!	!LO:MO:mod=4ryy	!	!	!
8A/	4r	.	8aa 8a/	.
4En/	.	.	4een 4en/	sf
!	!LO:MO:mod=4ryy	!	!	!
.	4r	.	.	.
8qG/	.	.	8qgg 8qg/	.
8F/	.	.	8ff (8f/)	.
=84	=84	=84	=84	=84
*	*	*	*	*^
!	!	!	!	!	!LO:MO:mod=!null:null
!	!LO:MO:mod=4ryy	!	!	!	!LO:DY:b=2:t=sf.
!	!	!	!	!	!LO:MO:null:mod=.
[2D/)	4r	.	[2dd [2d^>/)	sf	sf
!	!LO:MO:mod=4ryy	!	!	!	!
.	4r	.	.	.	.
*	*	*	*	*v	*v
=85	=85	=85	=85	=85
*	*	*below	*	*
2D/_	4AA 4DD\	2 5	2dd_ 2d/_	.
!	!	!	!	!LO:MO:mod=!null:null
!	!	!	!	!LO:HP:b=2
.	8AAL 8DD\	.	.	<
.	8AAJ 8DD\	.	.	.
=86	=86	=86	=86	=86
2D/_	4En 4AA\	2 5	2dd_ 2d/_	.
.	8EL 8AA\	.	.	.
.	8EJ 8AA\	.	.	[[
!!LO:LB:g=original
=87	=87	=87	=87	=87
!	!LO:MO:mod=4ryy	!	!	!
8D/]	4r	.	8dd] 8d/]	.
!	!	!	!	!LO:MO:mod=!null:null
!	!	!	!	!LO:DY:t=p.
(<8D/L	.	.	(>8ddL 8d/	p
!	!LO:MO:mod=4ryy	!	!	!
8En/	4r	.	8ee- 8e-/	.
8qG/	.	.	8qgg 8qg/	.
8F#X/J	.	.	8ff#XJ 8f#X/	.
=88	=88	=88	=88	=88
!	!	!	!	!LO:MO:mod=!null:null
!	!LO:MO:mod=4ryy	!	!	!LO:DY:t=sf.
[2D/)	4r	.	[2dd [2d/)	sf >
!	!LO:MO:mod=4ryy	!	!	!
.	4r	.	.	.
=89	=89	=89	=89	=89
4D/]	4GG#X 4DD\	.	4dd] 4d/]	.
4BB-/	8GG#L 8DD\	.	4b- 4B-/	.
.	8GG#J 8DD\	.	.	]
=90	=90	=90	=90	=90
4AA/	4AA\	.	8a 8A/	.
!	!	!	!	!LO:MO:mod=!null:null
!	!	!	!	!LO:DY:t=piani
.	.	.	(>8A'>/L	pp
4rA	4r	.	8Bn'>/	.
.	.	.	8d'>/J	<
*v	*v	*	*	*
=91	=91	=91	=91
*	*	*^	*
4r	.	16c#X/LL	8r	.
.	.	16d/	.	.
.	.	16c#/	8A'\L	.
.	.	16d/JJ	.	.
4r	.	8en/L	8Bn'\	.
.	.	8a/J)	8c#X'\J	[[
=92	=92	=92	=92	=92
8r	.	(4d/	[2d\	.
(8D'\L	.	.	.	.
8En'\	.	[4dd/	.	.
8G'\J	.	.	.	.
=93	=93	=93	=93	=93
(16F#X\LL	.	4dd/]	2d\]	.
16G\	.	.	.	.
16F#\	.	.	.	.
16G\JJ)	.	.	.	.
8A'\L	.	4cc/	.	.
8d'\J)	.	.	.	.
=94	=94	=94	=94	=94
4G\	.	4b-/)	8d\L	.
.	.	.	(>[8g\J	.
(4e-^\	.	8a'/L	4g\_	.
.	.	8cc'/J	.	.
=95	=95	=95	=95	=95
8d\L)	.	(16b-/LL	2g\]	.
.	.	16cc/	.	.
8c'\	.	16b-/	.	.
.	.	16cc/JJ	.	.
8B-'\	.	8dd'/L)	.	.
8G'\J	.	8gg/J)	.	.
=96	=96	=96	=96	=96
*^	*	*	*	*
!	!	!	!	!LO:MO:mod=4ryy	!
4g:/	4E-:\	.	4gg/	4r	.
!	!	!	!	!LO:MO:mod=4ryy	!
8f#X/L	4r	.	8ff#X/L	4r	.
!LO:TX:b:i:t=con dolore	!	!	!	!	!
8e-/J	.	.	8ee-/J	.	.
=97	=97	=97	=97	=97	=97
*	*	*	*	*	*^
!	!LO:MO:mod=4ryy	!	!	!LO:MO:mod=4ryy	!LO:DY:a	!LO:MO:null:mod=.
[>>2g/	4r	.	[2gg/	4r	sf	sf
!	!LO:MO:mod=4ryy	!	!	!LO:MO:mod=4ryy	!	!
.	4r	.	.	4r	.	.
*	*	*	*	*	*v	*v
=98	=98	=98	=98	=98	=98
!	!	!	!	!LO:MO:mod=4ryy	!LO:HP:b=2
2g/]	4B- 4E-\	.	2gg/]	4r	<
!	!	!	!	!LO:MO:mod=4ryy	!
.	8B-L 8E-\	.	.	4r	.
.	8B-J 8E-\	.	.	.	[[
*	*	*	*v	*v	*
!!LO:LB:g=original
=99	=99	=99	=99	=99
*ped	*	*	*	*
8g:/L	4Bn: 4D: 4GG:\	.	(>8gg/L	sf >
!LO:TX:b:i:t=rit.	!	!	!	!
8f/	.	.	8ff/	.
8e-/	4r	.	8ee-/	.
8d/J	.	.	8dd/J)	]]
*Xped	*	*	*	*
=100	=100	=100	=100	=100
!	!LO:MO:mod=4ryy	!	!	!
4e-/	4r	.	(>4ee-^>/	sf
!	!LO:MO:mod=4ryy	!	!	!
8d/L	4r	.	8dd/L	.
8Bn/J	.	.	8bn/J	.
=101	=101	=101	=101	=101
!	!LO:MO:mod=4ryy	!	!	!
[2e-/	4r	.	[>2ee-/)	.
!	!LO:MO:mod=4ryy	!	!	!
.	4r	.	.	.
=102	=102	=102	=102	=102
!	!	!	!	!LO:HP:b=2
2e-/]	4G 4C\	.	2ee-/]	<
.	8GL 8C\	.	.	.
.	8GJ 8C\	.	.	.
=103	=103	=103	=103	=103
8e-/L	4r	.	(>8ee-/L	[
!LO:TX:b:i:t=rit.	!	!	!	!
8d/	.	.	8dd/	.
8c/	4r	.	8cc/	.
8G/J	.	.	8g/J	.
=104	=104	=104	=104	=104
!	!	!	!	!LO:DY:a
2B-/	4r	.	2b-/)	sf
!	!	!	!	!LO:DY:b=2
.	8BB-L 8EE-\	.	.	f
.	[>8BB-J [8EE-\	.	.	.
=105	=105	=105	=105	=105
8B-/L	2BB-] 2EE-\]	.	8b-/L	<
8A/J	.	.	8a/J	.
!	!	!	!LO:TX:a:i:t=agitato e crescendo	!
16F#X/LL	.	.	16f#X/LL	.
16G/	.	.	16g/	.
16F#/	.	.	16f#/	.
16G/JJ	.	.	16g/JJ	.
=106	=106	=106	=106	=106
*	*	*	*^	*
2B-/	4r	.	2b-/	4r	.
!	!	!	!	!	!LO:DY:b=2
.	8EEnL 8AAA\	.	.	8c#XL 8G\	[ sf
.	[8EEJ [8AAA\	.	.	8c#J 8G\	.
=107	=107	=107	=107	=107	=107
*	*^	*	*	*	*
8B-/L	4r	4EE] 4AAA\]	.	8b-/L	4r	.
8G/J	.	.	.	8a/J	.	.
4r	4ryy	4AA 4AAA\	.	16f#X/LL	4c#X 4G\	.
.	.	.	.	16g/	.	.
.	.	.	.	16f#/	.	.
.	.	.	.	16g/JJ	.	.
*	*v	*v	*	*	*	*
=108	=108	=108	=108	=108	=108
4r	[2AA [2DD\	.	[2a/	8F#X'>\L	.
.	.	.	.	8A'>\	.
[<4A/	.	.	.	8Bn'>\	.
!	!	!	!LO:TX:a:i:t=vivo	!	!
.	.	.	.	8d'>\J	.
=109	=109	=109	=109	=109	=109
!LO:MO:mod=!null:null	!	!	!LO:MO:null:mod=!LO&colon;TX&colon;i&colon;t=accelerando	!	!LO:MO:mod=!null:null
!LO:TX:b:i:t=accelerando	!	!	!	!	!LO:DY:t=forte:rj
4A/]	2AA] 2DD\]	.	2a/]	(>16c#X\LL	f
.	.	.	.	16d\	.
.	.	.	.	16c#\	.
.	.	.	.	16d\JJ)	.
(4A/	.	.	.	8en^^>\L	.
.	.	.	.	8a^^>\J	.
!!LO:PB:g=original
=110	=110	=110	=110	=110	=110
*	*	*	*	*^	*
8A/)	[2DD\	.	[2a/	4f#X\	4ryy	.
(8AA/L	.	.	.	.	.	.
!	!	!	!	!	!	!LO:DY:b=2:t=forte
8BBn/	.	.	.	8g\L	[<4A\	f
8D/J	.	.	.	8f#\J	.	.
*	*	*	*	*v	*v	*
=111	=111	=111	=111	=111	=111
16C#X/LL	2DD\]	.	2a/]	4en 4A\]	.
16D/	.	.	.	.	.
16C#/	.	.	.	.	.
16D/JJ	.	.	.	.	.
8En/L	.	.	.	4g 4A\	.
8A/J)	.	.	.	.	.
=112	=112	=112	=112	=112	=112
4r	2AA 2DD\	.	[2a/	8f#X\L	.
.	.	.	.	8A\	.
[<4A^/	.	.	.	8Bn\	.
!	!	!	!	!	!LO:DY:a:t=forte
.	.	.	.	8d\J	f
=113	=113	=113	=113	=113	=113
4A/]	2AA 2DD\	.	2a/]	16c#X\LL	.
.	.	.	.	16d\	.
.	.	.	.	16c#\	.
.	.	.	.	16d\JJ	.
4A^/	.	.	.	8en\L	.
.	.	.	.	8a\J	.
=114	=114	=114	=114	=114	=114
!	!	!	!	!	!LO:HP:t=poco crescendo
8r	[2DD\	.	[2a/	4f#X\	<
8AA/L	.	.	.	.	.
8BBn/	.	.	.	8gL 8A\	.
8D/J	.	.	.	8f#\J	.
=115	=115	=115	=115	=115	=115
16C#X/LL	2DD\]	.	2a/]	4en 4A\	.
16D/	.	.	.	.	.
16C#/	.	.	.	.	.
16D/JJ	.	.	.	.	.
8En/L	.	.	.	4g 4A\	.
8A/J	.	.	.	.	.
*v	*v	*	*	*	*
*	*	*v	*v	*
=116	=116	=116	=116
4DD\	.	8f#X 8A/	.
.	.	8d/	<
8d>\	.	8ra	.
8r	.	8d/	.
=117	=117	=117	=117
4D\	.	8r	.
.	.	4d/	.
4D\	.	.	.
.	.	[8d/	[[
=118	=118	=118	=118
4D\	.	8d/]	.
!	!	!LO:TX:a:i:t=agitato.:mod=agitato	!
.	.	4dd 4d/	f
4D\	.	.	.
.	.	[8dd [8d/	.
=119	=119	=119	=119
4D\	.	8dd] 8d/]	<
.	.	4ddd 4dd/	.
4D\	.	.	.
.	.	8ddd 8dd/	[[
!!LO:LB:g=original
=120	=120	=120	=120
*	*	*^	*
8r	.	4ddd 4dd/	8r	.
!LO:TX:b:i:t=con pedale	!	!	!	!
4BB- 4BBB-\	.	.	8ff\	ff
.	.	4fff 4ff/	8r	.
8f 8d 8B- 8F\	.	.	8ff\	.
=121	=121	=121	=121	=121
8r	.	8.cccL 8.cc/	8r	.
4BB- 4BBB-\	.	.	8ff\	.
.	.	16dddJk 16dd/	.	.
.	.	8eee-L 8ee-/	4ryy	.
8f 8e- 8A 8F\	.	8eee-J 8ee-/	.	.
*	*	*v	*v	*
=122	=122	=122	=122
8r	.	8dddL 8dd\	.
!	!	!	!LO:MO:mod=!null:null
!	!	!	!LO:DY:t=f.
4BB- 4BBB-\	.	8ccc 8cc\	f
.	.	8bb- 8b-\	.
8f 8d 8B- 8F\	.	8dddJ 8dd\	.
=123	=123	=123	=123
*	*	*^	*^
8r	.	8cccL 8cc\	4ryy	>	.
4BB- 4BBB-\	.	8aaJ 8a\	.	.	.
!	!	!	!	!	!LO:DY:a:t=sf.
.	.	4ff 4f/	8r	.	sf
8f 8e- 8A 8F\	.	.	8ee- 8a\	]]	.
=124	=124	=124	=124	=124	=124
!	!	!	!	!LO:MO:null:mod=.	!LO:DY:a
8r	.	4gg 4g/	8r	<	sf
!	!	!	!	!LO:MO:null:mod=<	!
4BB- 4BBB-\	.	.	8ee- 8b-\	.	.
.	.	4bb- 4b-^/	8r	.	.
8g 8e- 8B- 8G\	.	.	8ee-\	.	.
*	*	*v	*v	*	*
=125	=125	=125	=125	=125
8r	.	8ffL 8f^>/	.	.
!	!	!	!	!LO:DY:t=più forte
4BB- 4BBB-\	.	16ffL 16f/	[	f
.	.	16ee-JJ 16e-/	.	.
.	.	8ddL 8d/	.	.
8f 8d 8B- 8F\	.	8ffJ 8f/	.	.
=126	=126	=126	=126	=126
!	!	!	!LO:HP:a	!
8r	.	8.ggL 8.g\	<	.
4BB- 4BBB-\	.	.	.	.
.	.	8qqee-/	.	.
.	.	16aaK 16a\	.	.
.	.	8bb- 8b-\	.	.
!	!	!	!	!LO:HP:t=poco crescendo
8f 8e- 8A 8F\	.	8cccJ 8cc\	.	<
=127	=127	=127	=127	=127
*	*	*^	*	*
8r	.	4ddd 4dd\	8r	.	.
4BB- 4BBB-\	.	.	8bb- 8ff\	[	.
.	.	4eeen 4een/	8r	.	.
8AA 8AAA\	.	.	8ccc#X 8aa\	.	.
*	*	*	*	*v	*v
*	*	*v	*v	*
=128	=128	=128	=128
*	*	*^	*
*	*	*8va	*	*
8r	.	8.fffL 8.ff\	8r	.
*	*	*	*cue	*
4D 4DD\	.	.	8ddd 8aa\	.
.	.	16gggK 16gg\	.	.
*	*	*	*Xcue	*
.	.	8aaa 8aa\	4ryy	.
8f 8d 8A 8F\	.	8bbb-J 8bb-\	.	.
!!LO:LB:g=original
=129	=129	=129	=129	=129
!	!	!LO:SIC:o=4cccc 4ccc\	!	!
8r	.	4cccc 4ccc	8r	<
4C 4CC\	.	.	8ggg 8eee-\	.
!	!	!LO:SIC:o=4dddd 4ddd\	!	!
.	.	4dddd 4ddd	8r	[
8g 8e- 8c 8G\	.	.	8ggg 8eee-\	.
=130	=130	=130	=130	=130
!	!	!LO:SIC:o=4eeee- 4eee-\	!	!
8r	.	4eeee- 4eee-	8r	.
4C-X 4CC-X\	.	.	8cccc-X 8ggg-X\	ff
!	!	!LO:SIC:o=4gggg-X 4ggg-\	!	!
.	.	4gggg-X 4ggg-	8r	.
8g-X 8e- 8c-X 8G-X\	.	.	8eeee- 8cccc-\	.
=131	=131	=131	=131	=131
!	!	!LO:SIC:o=4eeee- 4eee-\	!	!LO:DY:b=2
!	!	!	!	!LO:MO:null:mod=.
8r	.	4eeee- 4eee-	8r	f
4C-X 4CC-X\	.	.	8cccc-X 8ggg-X\	.
!	!	!LO:SIC:o=4gggg-y 4ggg-\	!	!
.	.	4gggg-y 4ggg-	8r	.
!	!	!	!	!LO:DY:b=2:t=forte
!	!	!	!	!LO:MO:null:mod=.
8g-X 8e- 8c-X 8G-X\	.	.	8eeee- 8cccc-\	f
*	*	*v	*v	*
=132	=132	=132	=132
*^	*	*	*^
8r	2FF 2FFF\	.	4ggggn 4eeee- 4gggn\	.	.
!	!	!	!	!LO:MO:mod=!null:null	!
!	!	!	!	!LO:HP:b=2	!
(8fL 8A\	.	.	.	<	fff
8g 8B-\	.	.	4gggg 4eeee- 4ggg\	.	.
!LO:TX:a:i:t=con tutta la forza	!	!	!	!	!
8aJ 8c\)	.	.	.	[[	.
*v	*v	*	*	*v	*v
=133	=133	=133	=133
*	*	*^	*
2FF 2FFF\	.	8.ffffL 8.dddd 8.fff/	8r	.
.	.	.	(>4bb- (4dd\	.
.	.	16ddddJk 16fff 16ddd/	.	.
*	*	*X8va	*	*
!	!	!LO:TX:a:t=loco	!	!
.	.	8bbb-L 8ddd 8bb-/	.	.
.	.	8fffJ 8ddd/	8ff 8dd) 8f\)	.
*	*	*v	*v	*
=134	=134	=134	=134
*^	*	*	*
8r	2FF 2FFF\	.	(8gggL 8eee- 8gg\	>
8e-L 8B- 8G\	.	.	8aaa 8aa\)	.
8g 8e- 8B-\	.	.	(8bbb- 8bb-\	.
8b-J 8g 8e-\	.	.	16aaaL 16aa\	.
.	.	.	16gggJJ 16gg\)	.
*v	*v	*	*	*
*clefG2	*	*	*
=135	=135	=135	=135
(<8ddL 8f 8d^/	.	(8fff 8ff\	.
8gJ 8G^/	.	(4bbb- 4bb-\)	.
*clefF4	*	*	*
8fL 8F^<\	.	.	.
8dJ 8D^<\)	.	8fff 8ff\)	]]
=136	=136	=136	=136
*^	*	*	*
8r	2FF 2FFF\	.	[4ggg 4eee- 4gg\	ff
!	!	!	!	!LO:HP:b=2
(<8AL 8C/	.	.	.	<
8e- 8F/	.	.	4ggg] 4eee- 4gg\	.
8gJ 8e- 8A/)	.	.	.	[[
=137	=137	=137	=137	=137
8r	2F 2FF\	.	(8.fffL 8.ddd 8.ff\	>
8B-L 8D/	.	.	.	.
.	.	.	16dddJk 16ff 16dd\	.
8dJ 8F/	.	.	8bb-L 8dd 8b-/	.
8r	.	.	8ffJ 8f/	]]
!!LO:LB:g=original
=138	=138	=138	=138	=138
8r	2E- 2EE-\	.	8ggL 8g\	.
8e-L 8B- 8G\	.	.	8aa 8a\	.
!	!	!	!	!LO:DY:b=2:t=f.
8gJ 8e- 8B-\	.	.	(8bb- 8b-\	f
!	!	!	!	!LO:MO:mod=!null:null
!	!	!	!	!LO:HP:t=cres.
8r	.	.	16aaL 16a\	<
.	.	.	16ggJJ)) 16g\	.
=139	=139	=139	=139	=139
8r	2D 2DD\	.	(4ff 4f\	.
4B- 4F/	.	.	.	.
!	!	!	!	!LO:DY:a
!	!	!	!	!LO:MO:null:mod=.
.	.	.	(4bb- 4b-^\)	f
8f 8d 8B- 8F/	.	.	.	.
=140	=140	=140	=140	=140
8r	4D-X 4DD-X\	.	(8ggL 8ee- 8g\)	.
!LO:MO:mod=!LO&colon;TX&colon;i&colon;t=rit.	!	!	!	!LO:DY:a:t=forte
!LO:TX:b:i:t=rit	!	!	!	!LO:MO:null:mod=.
8g 8e- 8B- 8G\	.	.	8aaJ 8a\	f
8r	4C 4CC\	.	8bb-L [<8een 8b-\)	.
8en 8B-\	.	.	(16aaL 16ee] 16cc 16a\	.
.	.	.	16ggJJ 16g\)	.
=141	=141	=141	=141	=141
*	*	*	*	*^
8r	2FF 2FFF\	.	(4.ff 4.f\	.	<
!	!	!	!	!LO:HP:b=2	!
(8B-L 8D\	.	.	.	<	.
8d 8F\	.	.	.	.	.
8fJ 8B-\)	.	.	8dd 8d\)	.	[
=142	=142	=142	=142	=142	=142
8r	[2FF [2FFF\	.	[2ff [2f\	.	ff
!	!	!	!	!LO:HP:b=2	!
8GL 8BBn/	.	.	.	[ <	.
8Bn 8D/	.	.	.	.	.
8dJ 8G/	.	.	.	.	.
=143	=143	=143	=143	=143	=143
(<8cL 8E-/	4.FF] 4.FFF\]	.	2ff] 2f\]	.	.
8e- 8G/	.	.	.	[	.
8gJ 8c/)	.	.	.	.	.
8r	[8FF\	.	.	.	.
*	*	*	*	*v	*v
=144	=144	=144	=144	=144
!	!	!	!	!LO:DY:a
8r	2FF_ [2FFF\	.	[2ff [2f\	f
!	!	!	!LO:TX:b:i:t=poco ritenuto	!
(>8cL 8E-\	.	.	.	.
8e- 8G\	.	.	.	.
8gJ 8c\	.	.	.	.
=145	=145	=145	=145	=145
*	*	*	*	*^
!	!	!	!LO:SIC:o=2ff] 2f\]	!	!
8a 8e- 8A\)	4FF] 4FFF\]	.	2ff] 2f]	.	.
!	!	!	!	!LO:DY:a	!
4dd> 4d>\	.	.	.	sf	ff
.	4FF 4FFF\	.	.	.	.
8cc> 8a> 8e-> 8c>\	.	.	.	.	.
*v	*v	*	*	*v	*v
=146	=146	=146	=146
*	*	*^	*
!	!	!LO:TX:a:i:t=leggiero e piu vivo	!	!
8r	.	4dd/	8r	.
!LO:TX:b:i:t=pedale á chaque mesure 	!	!	!	!
8F 8BB-\	.	.	8f 8d\	p
8r	.	4ff/	8r	.
!	!	!LO:TX:a:t=mg	!	!
8ff>\	.	.	8f 8d\	.
=147	=147	=147	=147	=147
8r	.	8.cc/L	8r	.
8F 8BB-\	.	.	8g 8e-\	.
.	.	16dd/Jk	.	.
8r	.	8ee-/L	8r	.
!	!	!LO:TX:a:t=m.g.	!	!
8ff>\	.	8ee-/J	8g 8e-\	.
!!LO:LB:g=original
=148	=148	=148	=148	=148
8r	.	8dd/L	8r	.
8F 8BB-\	.	8cc/J	8f 8d\	.
!	!	!	!	!LO:DY:t=piano
!	!	!	!	!LO:MO:null:mod=.
8r	.	8b-/L	8r	p
!	!	!LO:TX:a:t=m.g.	!	!
8ff>\	.	8dd/J	8f 8d\	.
=149	=149	=149	=149	=149
8r	.	8cc/L	8r	>
8F 8BB-\	.	8a/J	8g 8e-\	.
8r	.	4f/	8r	.
!	!	!LO:TX:a:t=mg.	!	!
8ff>\	.	.	8e- 8A\	]]
=150	=150	=150	=150	=150
8r	.	4g/	8r	<
8F 8BB-\	.	.	8e- 8B-\	.
8r	.	4b-/	8r	.
!	!	!LO:TX:a:t=m.g.	!	!
8ff>/	.	.	8g 8e- 8B-\	.
=151	=151	=151	=151	=151
!	!	!	!	!LO:MO:mod=!null:null
!	!	!	!	!LO:HP:t=cres
8r	.	2b-/	8f\L	[ <
8F 8BB-\	.	.	16f\L	.
.	.	.	16e-\JJ	.
8r	.	.	8d\L	.
!	!	!LO:TX:a:t=m.g.	!	!
8ff>/	.	.	8f\J	.
=152	=152	=152	=152	=152
8r	.	4g/	8e-\L	.
8F 8BB-\	.	.	8d\J	.
8r	.	4a/	8e-\L	.
!	!	!LO:TX:a:t=mg.	!	!
8ff>/	.	.	8c\J	.
=153	=153	=153	=153	=153
*^	*	*	*	*
8BB-\L	[2BB-\	.	[2b-/	4d\	.
8B-\J	.	.	.	.	.
!	!	!	!	!LO:TX:b:i:t=marcato il tempo	!
(4A^\	.	.	.	4f\	.
=154	=154	=154	=154	=154	=154
4A-X\	2BB-\_	.	2b-/]	8c\L	.
.	.	.	.	16c\L	.
.	.	.	.	16d\JJ	.
4G\	.	.	.	8e-\L	.
.	.	.	.	8e-\J	.
=155	=155	=155	=155	=155	=155
4G-X\	2BB-\_	.	[2b-/	8d\L	.
!	!	!	!	!	!LO:HP:a:t=<...> e diminuendo
.	.	.	.	8c\	>
4Fn\	.	.	.	8B-\	.
.	.	.	.	8d\J	.
=156	=156	=156	=156	=156	=156
4En\	2BB-\]	.	4b-/]	8c\L	.
.	.	.	.	8G\	.
4E-X\	.	.	4f/	8A\	.
.	.	.	.	8F\J	.
*	*	*	*v	*v	*
=157	=157	=157	=157	=157
*	*^	*	*	*
4D\	2BB-\	2F/	.	8b-/L	.
.	.	.	.	8B-/J	.
!	!	!	!	!	!LO:MO:mod=!null:null
!	!	!	!	!	!LO:DY:t=sf.
4D-X\)	.	.	.	4f/	sf
*	*v	*v	*	*	*
!!LO:LB:g=original
=158	=158	=158	=158	=158
[2E-/	4C\	.	(8c/L	>
.	.	.	16c/L	.
.	.	.	16d/J)	.
.	4C-X\	.	8e-/	.
.	.	.	8e-/J	]]
=159	=159	=159	=159	=159
4E-/]	4BB-\	.	8d/L	.
!	!	!	!	!LO:MO:mod=!null:null
!	!	!	!	!LO:DY:t=piano
.	.	.	8c/	p
!	!	!	!	!LO:DY:a
[4En/	(4CC^\	.	8B-/	sf
.	.	.	8d/J	.
=160	=160	=160	=160	=160
4E/]	4FF\)	.	8c/L	.
.	.	.	8G/	.
4E-X/	(4FFF^\	.	8A/	.
.	.	.	8F/J	.
=161	=161	=161	=161	=161
*	*	*	*^	*
8D/L	2BBB-\)	.	4B-/	4ryy	.
8F/J	.	.	.	.	.
!	!	!	!	!LO:TX:a:t=mg.	!LO:DY:a
8D/L	.	.	4d/	8f^>\	sf
8F/J	.	.	.	8ryy	.
=162	=162	=162	=162	=162	=162
!	!	!	!	!	!LO:DY:b=2:t=forte
8r	2BBB-\	.	4B-/	4ryy	f
8F 8D/	.	.	.	.	.
!	!	!	!	!LO:TX:a:t=mg.	!
8r	.	.	4d/	8f^>\	.
8F 8D/	.	.	.	8ryy	.
*	*	*	*v	*v	*
=163	=163	=163	=163	=163
4F 4D/	2BBB-\	.	4B-/	.
*8va	*	*	*8va	*
[4ff> [4f>>\	.	.	[4ffff [<4fff/	.
*v	*v	*	*	*
=164	=164	=164	=164
!	!	!	!LO:DY:b=2:t=fortiſſimo
4ff>] 4f>\]	.	4ffff] 4fff/]	ff
8een>L 8en\	.	8eeeenL 8eeen/	.
8cc#XJ 8c#X\	.	8cccc#XJ 8ccc#X/	.
=165	=165	=165	=165
16ff> 16f>\	.	16rfff	.
16r	.	16ffff 16fff\	.
!LO:TX:b:i:t=martellato	!	!	!
16dd> 16d\	.	16r	.
16r	.	16dddd 16ddd\	.
16b- 16B-\	.	16r	.
16r	.	16bbb- 16bb-\	.
16g 16G\	.	16r	.
*X8va	*	*	*
16r	.	16ggg 16gg\	.
*	*	*X8va	*
=166	=166	=166	=166
16f 16F\	.	16r	.
16r	.	16fff 16ff\	.
16d 16D\	.	16r	.
16r	.	16ddd 16dd\	.
16B- 16BB-\	.	16r	.
16r	.	16bb- 16b-\	ff
16G 16GG\	.	16r	.
16r	.	16gg 16g\	.
=167	=167	=167	=167
16F 16FF\	.	16r	.
16r	.	16ff 16f/	.
16D 16DD\	.	16r	.
16r	.	16dd 16d/	.
16BB- 16BBB-\	.	16r	.
16r	.	16b- 16B-/	.
16FF 16FFF\	.	16r	.
16r	.	16f 16F/	.
=168	=168	=168	=168
4GG 4GGG\	.	4r	.
[4d [4D\	.	[>4bb- [>4dd [<4b-/	sf
!!LO:PB:g=original
=169	=169	=169	=169
4d] 4D\]	.	2bb-] 2dd] 2b-\]	.
!	!	!	!LO:MO:mod=!null:null
!	!	!	!LO:DY:t=forte
8c#XL 8C#X\	.	.	f
8B-J 8BB-\	.	.	.
=170	=170	=170	=170
4d 4D\	.	(2bb- 2dd 2b-\	sf
*ped	*	*	*
*8ba	*	*	*
[<4BBB- [4BBBB-^\	.	.	.
=171	=171	=171	=171
*	*	*^	*
2BBB-_< 2BBBB-\_	.	[2bbb- [2ddd [<2bb-\	[2dd [2b- [2f [2d\	fff
=172	=172	=172	=172	=172
2BBB-_< 2BBBB-\_	.	2bbb-_ 2ddd_ 2bb-/_	2dd_> 2b-_ 2f_ 2d\_	.
=173	=173	=173	=173	=173
4BBB-] 4BBBB-\]	.	4bbb-] 4ddd] 4bb-/])	4dd] 4b-] 4f] 4d\]	.
*X8ba	*	*	*	*
4r	.	4reee	4r	.
*Xped	*	*	*	*
*	*	*v	*v	*
!!LO:LB:g=original
=174|!	=174|!	=174|!	=174|!
*^	*	*	*
!	!	!	!LO:TX:t=P:problem=dodatkowe dopisane 2 fragmenty pod utworem	!
!	!	!	!LO:TX:a:t=1a:mod=	!LO:DY:t=piano e melancholia:mod=piano e melancolico
8r	2DD\	.	4F/ 4d	p
4D/	.	.	.	.
.	.	.	8G/L 8en	.
8D/	.	.	8B-/J 8g	.
=175	=175	=175	=175	=175
8r	2DD\	.	8A/L 8f#X	.
4D/	.	.	8en/ 8g	.
.	.	.	8f#/ 8a	.
8D/	.	.	8a/J 8cc	.
=176	=176	=176	=176	=176
8r	2GG\	.	8.g/L 8.b-	.
4D/	.	.	.	.
.	.	.	16d/Jk 16a	.
.	.	.	8B-/L 8g	.
8D/	.	.	8g/J 8b-	.
=177	=177	=177	=177	=177
!	!	!	!	!LO:DY:a
8r	2GG\	.	2d/ 2b- 2dd	sf
4D/	.	.	.	.
8D/	.	.	.	<
=178	=178	=178	=178	=178
8r	2DD\	.	4f#X/ 4dd	.
4D\ 4A 4d	.	.	.	.
.	.	.	8g/L 8een	.
8D\ 8A 8d	.	.	8b-/J 8gg	.
=179	=179	=179	=179	=179
8r	2DD\	.	8a/L 8ff#X	.
!	!	!	!	!LO:MO:mod=!null:null
!	!	!	!	!LO:HP:t=crescendo
4D\ 4A 4d	.	.	8een/ 8gg	[ <
.	.	.	8ff#/ 8aa	.
8D/ 8F#X 8A	.	.	8cc/J 8aa 8ccc	.
=180	=180	=180	=180	=180
8r	2GGG\ 2GG	.	8.b-/L 8.gg 8.bb-	.
4D/ 4G 4B-	.	.	.	.
.	.	.	16a/Jk 16aa	.
.	.	.	8g/L 8gg	.
8G/ 8B- 8d	.	.	8b-/J 8bb-	.
=181	=181	=181	=181	=181
!	!	!	!	!LO:MO:mod=!null:null
!	!	!	!	!LO:DY:t=sf.
4r	2GGG\	.	2ee-;/ 2eee-	sf
4E-/ 4B- 4c#X	.	.	.	.
*v	*v	*	*	*
=182	=182	=182	=182
2ryy	.	8.dd\L 8.ddd	sf
.	.	16cc#X\Jk 16ccc#X	.
.	.	4b-\ 4bb-	.
!!LO:LB:g=original
=183||	=183||	=183||	=183||
*^	*	*	*
!	!	!	!LO:TX:a:t=2gi:mod=	!
8rFF	2BBB-\	.	(4C#<X/ 4A<	.
4AA\	.	.	.	.
.	.	.	8D</L 8B-<	.
8AA\	.	.	8F#<X/J 8d<	.
=184	=184	=184	=184	=184
8rFF	2EE-^\	.	8En</L 8c#<X	.
4AA\	.	.	8F#<X/ 8d<	.
.	.	.	8G</ 8en<	.
8AA\	.	.	8B-</J) 8g<	.
=185	=185	=185	=185	=185
8r	2DD\	.	(>>8A</L 8f#X	.
4AA\	.	.	8G</J 8en	.
.	.	.	8F#<X/L 8d	.
8AA\	.	.	8A</J 8d 8f#	.
=186	=186	=186	=186	=186
8r	2DD\	.	4d/ 4f#X 4a	.
4AA\	.	.	.	.
.	.	.	4A/)	.
8AA\	.	.	.	.
=187	=187	=187	=187	=187
8rAA	2DD\	.	(>>4d 4F#</	f
4D\	.	.	.	.
.	.	.	8G/L 8en	.
8D\	.	.	8B-/J 8g	<
=188	=188	=188	=188	=188
8r	2DD\	.	8A/L 8f#X	.
4D\	.	.	8en/ 8g	.
.	.	.	8f#/ 8a	.
8D\	.	.	8a/J 8cc)	[
=189	=189	=189	=189	=189
8r	2GG\	.	(>8g/L 8b-	.
4D/	.	.	8d/ 8a	<
.	.	.	8B-/ 8g	.
8D/	.	.	8d/J 8b-)	.
=190	=190	=190	=190	=190
!	!	!	!LO:TX:b:i:t=rit.	!
8r	4GG;\	.	4g;/ 4b- 4dd	.
8D;/	.	.	.	.
8G/L	4ryy	.	8g/L	[
8G/J	.	.	8g/J	.
*v	*v	*	*	*
=191	=191	=191	=191
!	!	!	!LO:MO:mod=!null:null
!	!	!	!LO:DY:t=piano
.	.	(<8qg/	p
2ryy	.	4gg/)	.
.	.	8ff#X/L	.
.	.	8ee-/J	.
=192	=192	=192	=192
2ryy	.	2gg/	.
==	==	==	==
*-	*-	*-	*-
!!!system-decoration: {(*)}
!!!RDF**kern: > = above
!!!RDF**kern: < = below
!!!RDF**kern: N = linked
!!!filter-modern: sic -sq | shed -e "s/:rj/:RJ/L" | shed -k -e "s/([^a-gA-Gn#X-])[<>]/$1/g" | shed -e "s/LO:DY:(a|b|B|rj)/LO:dy:$1/L" | shed -e "s/-//B" | modori -m
!!!ENC: Andrzej Gręziak
!!!END: 2021-12-05
!!!EED: Andrzej Kubiczek
!!!EEV: 2022-02-06
!!!ENC-modern: Andrzej Borzym
!!!END-modern: 2022-08-28
